X: 3023
T: Battle Swing
R: jig
M: 6/8
K: Bminor
|:BdB fBf|edc edc|BdB fBf|edc ABc|
BdB fBf|edc edc|dfe dcB|cB^A B3:|
|:Bdf bfb|afe fed|Bdf bfb|afe f3|
Bdf bfb|afe fed|gfe dcB|cB^A B3:|

